; G-Code generated by Simplify3D(R) Version 3.0.2
; Jun 16, 2017 at 7:19:38 PM
; Settings Summary
;   processName,Process1
;   applyToModels,Haribo_Y_Motor_brace_block
;   profileName,My Pla Profile MK2 (modified)
;   profileVersion,2016-12-30 11:30:42
;   baseProfile,Prusa Mendel (modified)
;   printMaterial,PLA
;   printQuality,NORMAL 0.2mm
;   printExtruders,
;   extruderName,Primary Extruder
;   extruderToolheadNumber,0
;   extruderDiameter,0.4
;   extruderAutoWidth,0
;   extruderWidth,0.46
;   extrusionMultiplier,1
;   extruderUseRetract,1
;   extruderRetractionDistance,1.2
;   extruderExtraRestartDistance,0
;   extruderRetractionZLift,0.1
;   extruderRetractionSpeed,3600
;   extruderUseCoasting,1
;   extruderCoastingDistance,1
;   extruderUseWipe,1
;   extruderWipeDistance,1
;   primaryExtruder,0
;   layerHeight,0.2
;   topSolidLayers,4
;   bottomSolidLayers,4
;   perimeterOutlines,4
;   printPerimetersInsideOut,0
;   startPointOption,2
;   startPointOriginX,0
;   startPointOriginY,0
;   startPointOriginZ,300
;   sequentialIslands,0
;   spiralVaseMode,0
;   firstLayerHeightPercentage,100
;   firstLayerWidthPercentage,95
;   firstLayerUnderspeed,0.5
;   useRaft,0
;   raftExtruder,0
;   raftLayers,3
;   raftOffset,3
;   raftSeparationDistance,0.14
;   raftInfill,85
;   disableRaftBaseLayers,0
;   useSkirt,1
;   skirtExtruder,0
;   skirtLayers,1
;   skirtOutlines,1
;   skirtOffset,1.8
;   usePrimePillar,0
;   primePillarExtruder,999
;   primePillarWidth,12
;   primePillarLocation,7
;   primePillarSpeedMultiplier,1
;   useOozeShield,0
;   oozeShieldExtruder,999
;   oozeShieldOffset,2
;   oozeShieldOutlines,1
;   oozeShieldSidewallShape,1
;   oozeShieldSidewallAngle,30
;   oozeShieldSpeedMultiplier,1
;   infillExtruder,0
;   internalInfillPattern,Rectilinear
;   externalInfillPattern,Rectilinear
;   infillPercentage,30
;   outlineOverlapPercentage,30
;   infillExtrusionWidthPercentage,100
;   minInfillLength,2
;   infillLayerInterval,1
;   infillAngles,45,-45
;   overlapInfillAngles,0
;   generateSupport,0
;   supportExtruder,0
;   supportInfillPercentage,21
;   supportExtraInflation,1.4
;   denseSupportLayers,0
;   denseSupportInfillPercentage,70
;   supportLayerInterval,1
;   supportHorizontalPartOffset,0.2
;   supportUpperSeparationLayers,1
;   supportLowerSeparationLayers,1
;   supportType,0
;   supportGridSpacing,3
;   maxOverhangAngle,45
;   supportAngles,45,-45,90
;   temperatureName,Primary Extruder,Heated Bed
;   temperatureNumber,0,1
;   temperatureSetpointCount,2,2
;   temperatureSetpointLayers,1,2,1,2
;   temperatureSetpointTemperatures,220,220,70,80
;   temperatureStabilizeAtStartup,1,1
;   temperatureHeatedBed,0,1
;   temperatureRelayBetweenLayers,0,0
;   temperatureRelayBetweenLoops,0,0
;   fanLayers,1,3
;   fanSpeeds,0,60
;   blipFanToFullPower,1
;   adjustSpeedForCooling,0
;   minSpeedLayerTime,20
;   minCoolingSpeedSlowdown,75
;   increaseFanForCooling,0
;   minFanLayerTime,45
;   maxCoolingFanSpeed,100
;   increaseFanForBridging,1
;   bridgingFanSpeed,100
;   use5D,1
;   relativeEdistances,1
;   allowEaxisZeroing,1
;   independentExtruderAxes,0
;   includeM10123,0
;   stickySupport,1
;   applyToolheadOffsets,0
;   gcodeXoffset,0
;   gcodeYoffset,0
;   gcodeZoffset,0
;   overrideMachineDefinition,1
;   machineTypeOverride,0
;   strokeXoverride,250
;   strokeYoverride,210
;   strokeZoverride,200
;   originOffsetXoverride,0
;   originOffsetYoverride,0
;   originOffsetZoverride,0
;   homeXdirOverride,-1
;   homeYdirOverride,-1
;   homeZdirOverride,-1
;   flipXoverride,1
;   flipYoverride,-1
;   flipZoverride,1
;   toolheadOffsets,0,0|0,0|0,0|0,0|0,0|0,0
;   overrideFirmwareConfiguration,0
;   firmwareTypeOverride,RepRap (Marlin/Repetier/Sprinter)
;   GPXconfigOverride,r2
;   baudRateOverride,250000
;   overridePrinterModels,1
;   printerModelsOverride
;   startingGcode,M300 S1567 P240,G28 W ; home all without mesh bed level,G1 E-1 F100; retract 1mm at speed of 100mms to prevent oozing when mesh bed leveling,G80 ; mesh bed leveling,G1 Y-3.0 F1000.0 ; go outside printing area,G1 X60.0 E9.0  F1000.0 ; intro line,G1 X100.0 E12.5  F1000.0 ; intro line,M300 S1567 P240,
;   layerChangeGcode,
;   retractionGcode,
;   toolChangeGcode,
;   endingGcode,G91 ; Relative positioning,G1 E-2 F900 ; Retract 2mm at 15mm/sec to reduce filament ooze,G1 F600 Z+10 ; Raise off print 10 mm at 2mm/sec,G90 ; Absolute positioning,G1 F2000 Z190 X5 Y205,;G1 F4000 X10 Y207 ;go to rear corner at 100mm/sec,M104 S0 ; Turn off hot end heater,M107 ; Turn off print cooler,M140 S0 ; Disable heated bed,G92 E0 ; Reset extruder position,M84 ; Turn steppers off,M117 Prusa i3 ready,M300 S1567 P240
;   createX3G,0
;   celebration,0
;   celebrationSong,Random Song
;   createMB5G,0
;   postProcessing,{REPLACE "; outer perimeter\n" "; outer perimeter\nM204 S600\n"},{REPLACE "; inner perimeter\n" "; inner perimeter\nM204 S1200\n"},{REPLACE "; solid layer\n" "; solid layer\nM204 S1500\n"},{REPLACE "; infill\n" "; infill\nM204 S2000\n"}
;   defaultSpeed,2700
;   outlineUnderspeed,0.8
;   solidInfillUnderspeed,0.8
;   supportUnderspeed,0.8
;   rapidXYspeed,4800
;   rapidZspeed,1002
;   minBridgingArea,50
;   bridgingExtraInflation,1
;   bridgingExtrusionMultiplier,0.5
;   bridgingSpeedMultiplier,0.5
;   filamentDiameter,1.75
;   filamentPricePerKg,215
;   filamentDensity,1.25
;   useMinPrintHeight,0
;   minPrintHeight,0
;   useMaxPrintHeight,0
;   maxPrintHeight,0
;   useDiaphragm,0
;   diaphragmLayerInterval,20
;   robustSlicing,1
;   mergeAllIntoSolid,0
;   onlyRetractWhenCrossingOutline,0
;   retractBetweenLayers,1
;   useRetractionMinTravel,1
;   retractionMinTravel,3
;   retractWhileWiping,1
;   onlyWipeOutlines,1
;   avoidCrossingOutline,0
;   maxMovementDetourFactor,3
;   toolChangeRetractionDistance,12
;   toolChangeExtraRestartDistance,-0.5
;   toolChangeRetractionSpeed,600
;   allowThinWallGapFill,1
;   thinWallAllowedOverlapPercentage,25
;   horizontalSizeCompensation,0
G90
M83
M106 S0
M140 S70
M190 S70
M104 S220 T0
M109 S220 T0
M300 S1567 P240
G28 W ; home all without mesh bed level
G1 E-1 F100; retract 1mm at speed of 100mms to prevent oozing when mesh bed leveling
G80 ; mesh bed leveling
G1 Y-3.0 F1000.0 ; go outside printing area
G1 X60.0 E9.0  F1000.0 ; intro line
G1 X100.0 E12.5  F1000.0 ; intro line
M300 S1567 P240
G1 E-1.2000 F3600
G1 Z0.300 F1002
; layer 1, Z = 0.2
T0
; tool H0.200 W0.437
; skirt
G1 X110.532 Y89.710 F4800
G1 Z0.200 F1002
G1 E1.2000 F1080
G1 X111.651 Y88.591 E0.0575 F1350
G1 X111.736 Y88.556 E0.0033
G1 X138.264 Y88.556 E0.9640
G1 X138.349 Y88.591 E0.0033
G1 X139.468 Y89.710 E0.0575
G1 X139.503 Y89.795 E0.0033
G1 X139.503 Y120.205 E1.1050
G1 X139.468 Y120.290 E0.0033
G1 X138.349 Y121.409 E0.0575
G1 X138.264 Y121.444 E0.0033
G1 X111.736 Y121.444 E0.9640
G1 X111.651 Y121.409 E0.0033
G1 X110.532 Y120.290 E0.0575
G1 X110.497 Y120.205 E0.0033
G1 X110.497 Y90.703 E1.0720
G1 X110.497 Y89.795 F1350
G1 X110.532 Y89.710 F1350
; outer perimeter
M204 S600
G1 X112.746 Y90.804 F4800
G1 X137.254 Y90.804 E0.8906 F1080
G1 X137.254 Y119.196 E1.0316
G1 X112.746 Y119.196 E0.8906
G1 X112.746 Y91.804 E0.9953
G1 X112.746 Y90.804 F1080
G1 X113.746 Y90.804 F2700
; inner perimeter
M204 S1200
G1 X113.183 Y91.241 F4800
G1 X136.817 Y91.241 E0.8588 F1147
G1 X136.817 Y118.759 E0.9999
G1 X113.183 Y118.759 E0.8588
G1 X113.183 Y92.241 E0.9635
G1 X113.183 Y91.241 F1147
; inner perimeter
M204 S1200
G1 X113.620 Y91.678 F4800
G1 X136.380 Y91.678 E0.8271 F1215
G1 X136.380 Y118.322 E0.9681
G1 X113.620 Y118.322 E0.8271
G1 X113.620 Y92.678 E0.9318
G1 X113.620 Y91.678 F1215
; inner perimeter
M204 S1200
G1 X114.057 Y92.115 F4800
G1 X135.943 Y92.115 E0.7953 F1282
G1 X135.943 Y117.885 E0.9364
G1 X114.057 Y117.885 E0.7953
G1 X114.057 Y93.115 E0.9000
G1 X114.057 Y92.115 F1282
; solid layer
M204 S1500
G1 X114.362 Y92.771 F4800
G1 X114.712 Y92.421 E0.0180 F1080
G1 X115.330 Y92.421 E0.0225
G1 X114.362 Y93.389 E0.0497
G1 X114.362 Y94.007 E0.0225
G1 X115.948 Y92.421 E0.0815
G1 X116.566 Y92.421 E0.0225
G1 X114.362 Y94.625 E0.1133
G1 X114.362 Y95.243 E0.0225
G1 X117.184 Y92.421 E0.1450
G1 X117.802 Y92.421 E0.0225
G1 X114.362 Y95.861 E0.1768
G1 X114.362 Y96.479 E0.0225
G1 X118.420 Y92.421 E0.2085
G1 X119.038 Y92.421 E0.0225
G1 X114.362 Y97.097 E0.2403
G1 X114.362 Y97.715 E0.0225
G1 X119.656 Y92.421 E0.2720
G1 X120.274 Y92.421 E0.0225
G1 X114.362 Y98.333 E0.3038
G1 X114.362 Y98.951 E0.0225
G1 X120.892 Y92.421 E0.3356
G1 X121.510 Y92.421 E0.0225
G1 X114.362 Y99.569 E0.3673
G1 X114.362 Y100.187 E0.0225
G1 X122.128 Y92.421 E0.3991
G1 X122.746 Y92.421 E0.0225
G1 X114.362 Y100.805 E0.4308
G1 X114.362 Y101.423 E0.0225
G1 X123.364 Y92.421 E0.4626
G1 X123.982 Y92.421 E0.0225
G1 X114.362 Y102.041 E0.4944
G1 X114.362 Y102.659 E0.0225
G1 X124.600 Y92.421 E0.5261
G1 X125.218 Y92.421 E0.0225
G1 X114.362 Y103.277 E0.5579
G1 X114.362 Y103.895 E0.0225
G1 X125.836 Y92.421 E0.5896
G1 X126.454 Y92.421 E0.0225
G1 X114.362 Y104.513 E0.6214
G1 X114.362 Y105.131 E0.0225
G1 X127.073 Y92.421 E0.6531
G1 X127.691 Y92.421 E0.0225
G1 X114.362 Y105.749 E0.6849
G1 X114.362 Y106.367 E0.0225
G1 X128.309 Y92.421 E0.7167
G1 X128.927 Y92.421 E0.0225
G1 X114.362 Y106.985 E0.7484
G1 X114.362 Y107.603 E0.0225
G1 X129.545 Y92.421 E0.7802
G1 X130.163 Y92.421 E0.0225
G1 X114.362 Y108.221 E0.8119
G1 X114.362 Y108.839 E0.0225
G1 X130.781 Y92.421 E0.8437
G1 X131.399 Y92.421 E0.0225
G1 X114.362 Y109.458 E0.8755
G1 X114.362 Y110.076 E0.0225
G1 X132.017 Y92.421 E0.9072
G1 X132.635 Y92.421 E0.0225
G1 X114.362 Y110.694 E0.9390
G1 X114.362 Y111.312 E0.0225
G1 X133.253 Y92.421 E0.9707
G1 X133.871 Y92.421 E0.0225
G1 X114.362 Y111.930 E1.0025
G1 X114.362 Y112.548 E0.0225
G1 X134.489 Y92.421 E1.0342
G1 X135.107 Y92.421 E0.0225
G1 X114.362 Y113.166 E1.0660
G1 X114.362 Y113.784 E0.0225
G1 X135.638 Y92.508 E1.0933
G1 X135.638 Y93.126 E0.0225
G1 X114.362 Y114.402 E1.0933
G1 X114.362 Y115.020 E0.0225
G1 X135.638 Y93.744 E1.0933
G1 X135.638 Y94.362 E0.0225
G1 X114.362 Y115.638 E1.0933
G1 X114.362 Y116.256 E0.0225
G1 X135.638 Y94.980 E1.0933
G1 X135.638 Y95.598 E0.0225
G1 X114.362 Y116.874 E1.0933
G1 X114.362 Y117.492 E0.0225
G1 X135.638 Y96.217 E1.0933
G1 X135.638 Y96.835 E0.0225
G1 X114.893 Y117.579 E1.0660
G1 X115.511 Y117.579 E0.0225
G1 X135.638 Y97.453 E1.0342
G1 X135.638 Y98.071 E0.0225
G1 X116.129 Y117.579 E1.0025
G1 X116.747 Y117.579 E0.0225
G1 X135.638 Y98.689 E0.9707
G1 X135.638 Y99.307 E0.0225
G1 X117.365 Y117.579 E0.9390
G1 X117.983 Y117.579 E0.0225
G1 X135.638 Y99.925 E0.9072
G1 X135.638 Y100.543 E0.0225
G1 X118.601 Y117.579 E0.8754
G1 X119.220 Y117.579 E0.0225
G1 X135.638 Y101.161 E0.8437
G1 X135.638 Y101.779 E0.0225
G1 X119.838 Y117.579 E0.8119
G1 X120.456 Y117.579 E0.0225
G1 X135.638 Y102.397 E0.7802
G1 X135.638 Y103.015 E0.0225
G1 X121.074 Y117.579 E0.7484
G1 X121.692 Y117.579 E0.0225
G1 X135.638 Y103.633 E0.7167
G1 X135.638 Y104.251 E0.0225
G1 X122.310 Y117.579 E0.6849
G1 X122.928 Y117.579 E0.0225
G1 X135.638 Y104.869 E0.6531
G1 X135.638 Y105.487 E0.0225
G1 X123.546 Y117.579 E0.6214
G1 X124.164 Y117.579 E0.0225
G1 X135.638 Y106.105 E0.5896
G1 X135.638 Y106.723 E0.0225
G1 X124.782 Y117.579 E0.5579
G1 X125.400 Y117.579 E0.0225
G1 X135.638 Y107.341 E0.5261
G1 X135.638 Y107.959 E0.0225
G1 X126.018 Y117.579 E0.4943
G1 X126.636 Y117.579 E0.0225
G1 X135.638 Y108.577 E0.4626
G1 X135.638 Y109.195 E0.0225
G1 X127.254 Y117.579 E0.4308
G1 X127.872 Y117.579 E0.0225
G1 X135.638 Y109.813 E0.3991
G1 X135.638 Y110.431 E0.0225
G1 X128.490 Y117.579 E0.3673
G1 X129.108 Y117.579 E0.0225
G1 X135.638 Y111.049 E0.3356
G1 X135.638 Y111.667 E0.0225
G1 X129.726 Y117.579 E0.3038
G1 X130.344 Y117.579 E0.0225
G1 X135.638 Y112.285 E0.2720
G1 X135.638 Y112.903 E0.0225
G1 X130.962 Y117.579 E0.2403
G1 X131.580 Y117.579 E0.0225
G1 X135.638 Y113.521 E0.2085
G1 X135.638 Y114.139 E0.0225
G1 X132.198 Y117.579 E0.1768
G1 X132.816 Y117.579 E0.0225
G1 X135.638 Y114.757 E0.1450
G1 X135.638 Y115.375 E0.0225
G1 X133.434 Y117.579 E0.1132
G1 X134.052 Y117.579 E0.0225
G1 X135.638 Y115.993 E0.0815
G1 X135.638 Y116.611 E0.0225
G1 X134.670 Y117.579 E0.0497
G1 X134.782 Y117.579 E0.0041
G1 X135.288 Y117.579 F1080
G1 X135.638 Y117.229 F1080
G1 E-1.2000 F3600
G1 Z0.500 F1002
; layer 2, Z = 0.4
M140 S80
; tool H0.200 W0.460
; outer perimeter
M204 S600
G1 X137.243 Y119.184 F4800
G1 Z0.400 F1002
G1 E1.2000 F3600
G1 X112.757 Y119.184 E0.9366 F2160
G1 X112.757 Y90.816 E1.0851
G1 X137.243 Y90.816 E0.9366
G1 X137.243 Y118.184 E1.0468
G1 X137.243 Y119.184 F2160
G1 X136.243 Y119.184 F2700
; inner perimeter
M204 S1200
G1 X136.783 Y118.724 F4800
G1 X113.217 Y118.724 E0.9014 F2295
G1 X113.217 Y91.276 E1.0499
G1 X136.783 Y91.276 E0.9014
G1 X136.783 Y117.724 E1.0116
G1 X136.783 Y118.724 F2295
; inner perimeter
M204 S1200
G1 X136.323 Y118.264 F4800
G1 X113.677 Y118.264 E0.8662 F2430
G1 X113.677 Y91.736 E1.0147
G1 X136.323 Y91.736 E0.8662
G1 X136.323 Y117.264 E0.9764
G1 X136.323 Y118.264 F2430
; inner perimeter
M204 S1200
G1 X135.863 Y117.804 F4800
G1 X114.137 Y117.804 E0.8310 F2565
G1 X114.137 Y92.196 E0.9795
G1 X135.863 Y92.196 E0.8310
G1 X135.863 Y116.804 E0.9412
G1 X135.863 Y117.804 F2565
G1 E-1.2000 F3600
G1 Z0.500 F1002
; solid layer
M204 S1500
G1 X114.713 Y117.482 F4800
G1 Z0.400 F1002
G1 E1.2000 F3600
G1 X114.459 Y117.228 E0.0138 F2160
G1 X114.459 Y116.577 E0.0249
G1 X115.364 Y117.482 E0.0489
G1 X116.014 Y117.482 E0.0249
G1 X114.459 Y115.927 E0.0841
G1 X114.459 Y115.276 E0.0249
G1 X116.665 Y117.482 E0.1193
G1 X117.315 Y117.482 E0.0249
G1 X114.459 Y114.626 E0.1545
G1 X114.459 Y113.975 E0.0249
G1 X117.966 Y117.482 E0.1897
G1 X118.616 Y117.482 E0.0249
G1 X114.459 Y113.325 E0.2249
G1 X114.459 Y112.674 E0.0249
G1 X119.267 Y117.482 E0.2601
G1 X119.918 Y117.482 E0.0249
G1 X114.459 Y112.024 E0.2953
G1 X114.459 Y111.373 E0.0249
G1 X120.568 Y117.482 E0.3305
G1 X121.219 Y117.482 E0.0249
G1 X114.459 Y110.722 E0.3656
G1 X114.459 Y110.072 E0.0249
G1 X121.869 Y117.482 E0.4008
G1 X122.520 Y117.482 E0.0249
G1 X114.459 Y109.421 E0.4360
G1 X114.459 Y108.771 E0.0249
G1 X123.170 Y117.482 E0.4712
G1 X123.821 Y117.482 E0.0249
G1 X114.459 Y108.120 E0.5064
G1 X114.459 Y107.470 E0.0249
G1 X124.471 Y117.482 E0.5416
G1 X125.122 Y117.482 E0.0249
G1 X114.459 Y106.819 E0.5768
G1 X114.459 Y106.169 E0.0249
G1 X125.772 Y117.482 E0.6120
G1 X126.423 Y117.482 E0.0249
G1 X114.459 Y105.518 E0.6472
G1 X114.459 Y104.868 E0.0249
G1 X127.073 Y117.482 E0.6823
G1 X127.724 Y117.482 E0.0249
G1 X114.459 Y104.217 E0.7175
G1 X114.459 Y103.567 E0.0249
G1 X128.375 Y117.482 E0.7527
G1 X129.025 Y117.482 E0.0249
G1 X114.459 Y102.916 E0.7879
G1 X114.459 Y102.265 E0.0249
G1 X129.676 Y117.482 E0.8231
G1 X130.326 Y117.482 E0.0249
G1 X114.459 Y101.615 E0.8583
G1 X114.459 Y100.964 E0.0249
G1 X130.977 Y117.482 E0.8935
G1 X131.627 Y117.482 E0.0249
G1 X114.459 Y100.314 E0.9287
G1 X114.459 Y99.663 E0.0249
G1 X132.278 Y117.482 E0.9639
G1 X132.928 Y117.482 E0.0249
G1 X114.459 Y99.013 E0.9990
G1 X114.459 Y98.362 E0.0249
G1 X133.579 Y117.482 E1.0342
G1 X134.229 Y117.482 E0.0249
G1 X114.459 Y97.712 E1.0694
G1 X114.459 Y97.061 E0.0249
G1 X134.880 Y117.482 E1.1046
G1 X135.530 Y117.482 E0.0249
G1 X114.459 Y96.411 E1.1398
G1 X114.459 Y95.760 E0.0249
G1 X135.541 Y116.842 E1.1404
G1 X135.541 Y116.191 E0.0249
G1 X114.459 Y95.110 E1.1404
G1 X114.459 Y94.459 E0.0249
G1 X135.541 Y115.541 E1.1404
G1 X135.541 Y114.890 E0.0249
G1 X114.459 Y93.808 E1.1404
G1 X114.459 Y93.158 E0.0249
G1 X135.541 Y114.240 E1.1404
G1 X135.541 Y113.589 E0.0249
G1 X114.470 Y92.518 E1.1398
G1 X115.120 Y92.518 E0.0249
G1 X135.541 Y112.939 E1.1046
G1 X135.541 Y112.288 E0.0249
G1 X115.771 Y92.518 E1.0694
G1 X116.421 Y92.518 E0.0249
G1 X135.541 Y111.638 E1.0342
G1 X135.541 Y110.987 E0.0249
G1 X117.072 Y92.518 E0.9990
G1 X117.722 Y92.518 E0.0249
G1 X135.541 Y110.337 E0.9639
G1 X135.541 Y109.686 E0.0249
G1 X118.373 Y92.518 E0.9287
G1 X119.023 Y92.518 E0.0249
G1 X135.541 Y109.036 E0.8935
G1 X135.541 Y108.385 E0.0249
G1 X119.674 Y92.518 E0.8583
G1 X120.324 Y92.518 E0.0249
G1 X135.541 Y107.735 E0.8231
G1 X135.541 Y107.084 E0.0249
G1 X120.975 Y92.518 E0.7879
